X:25
T:Saratoga Hornpipe (Craig 25)
M:C
L:1/8
B:Empire Violin Collection of Hornpipes
H:Published by Thomas Craig
H:Music Publisher, &c.
H:George Street, Aberdeen, N.B.
Z:Peter Dunk December 2011
R:hornpipe
Q:1/4=140
K:F
(AB) | c=BcA d_Bfd | BAFA cAdc | BAGB AGFA | Gc=Bd c_BAB |!
c=BcA d_Bfd | cAFA cdef | defg efga | f2f2f2 :|!
|: (ef)  | aAgA fAeA | fAeA dAfA | gA^ce agfe | fgef defg |!
aAgA fAeA | fAeA dAdf | defg efga | f2f2f2:|

